assets/Motorcycle/Flat/motorcycle_flat.svg

<svg width="32" height="32" viewBox="0 0 32 32" fill="none" xmlns="http://www.w3.org/2000/svg">
<path d="M11 25.5C11 27.9853 8.98528 30 6.5 30C4.01472 30 2 27.9853 2 25.5C2 23.0147 4.01472 21 6.5 21C8.98528 21 11 23.0147 11 25.5ZM30 25.5C30 27.9853 27.9853 30 25.5 30C23.0147 30 21 27.9853 21 25.5C21 23.0147 23.0147 21 25.5 21C27.9853 21 30 23.0147 30 25.5Z" fill="#321B41"/>
<path d="M6.98917 26.2543L5.91364 24.6327L9.98414 20.6449L11.5 22.0017L6.98917 26.2543ZM25.5 25.1478L26.0014 24.5L22.2453 20.8269L21 22.5L23.7234 25.0298H19.0187V27H25.5V25.1478Z" fill="#636363"/>
<path d="M11.2305 23C11.6953 23.9219 12 24.89 12 26C12 27.04 12.9167 28 14 28H18C19.0833 28 20 27.15 20 26.11V26C20 24.91 20.2656 23.88 20.7969 23L16.0137 22L11.2305 23Z" fill="#FF822D"/>
<path d="M7.5 15L6 17C6.5 17.5 6.71688 18.0147 7 18.5C7.31095 19.0331 7.5 19 7.78999 19.89L8.33 20.16C9.59 20.79 10.58 21.8 11.22 23H20.82C21.51 21.81 22.6 20.87 23.91 20.38C25.56 19.76 27.11 18.9 28.36 17.65C28.78 17.23 29.01 16.67 29.01 16.08V15.97C29 15.44 28.56 15 28.02 15H23.97C23.43 15 23 15.44 23 15.97V17.1H16C16 16 15.1 15 14 15H7.5Z" fill="#F92F60"/>
<path d="M27 17.01C26.45 17.01 26 17.46 26 18.01C26 18.47 26.31 18.83 26.73 18.95C27.31 18.57 27.86 18.15 28.35 17.65C28.54 17.46 28.68 17.24 28.79 17H27V17.01Z" fill="#CA0B4A"/>
<path d="M22.03 19H16.97C16.44 19 16 18.57 16 18.03V17H23V18.03C23 18.57 22.56 19 22.03 19Z" fill="#533566"/>
<path d="M8 19C8 19.32 7.91 19.62 7.78 19.89C6.69 19.35 6 18.23 6 17C7.1 17 8 17.9 8 19ZM10.01 19H11.01V17H10.01C9.45999 17 9.00999 17.45 9.00999 18C9.00999 18.55 9.45999 19 10.01 19Z" fill="#FCD53F"/>
<path d="M8 25.5C8 26.3284 7.32843 27 6.50001 27C5.67158 27 5 26.3284 5 25.5C5 24.6716 5.67158 24 6.50001 24C7.32843 24 8 24.6716 8 25.5ZM27 25.5C27 26.3284 26.3284 27 25.5 27C24.6716 27 24 26.3284 24 25.5C24 24.6716 24.6716 24 25.5 24C26.3284 24 27 24.6716 27 25.5Z" fill="#F4F4F4"/>
<path d="M5.99854 17C6.62854 17 7.22853 16.72 7.63853 16.23L10.8385 12.4C11.2785 11.87 10.7485 11.09 10.0985 11.31C7.70854 12.11 5.99854 14.36 5.99854 17Z" fill="#26C9FC"/>
<path d="M10.51 15H8.51001C8.23001 15 8.01001 14.78 8.01001 14.5C8.01001 14.22 8.23001 14 8.51001 14H10.51C10.79 14 11.01 14.22 11.01 14.5C11.01 14.78 10.78 15 10.51 15Z" fill="#321B41"/>
</svg>

<svg xmlns="http://www.w3.org/2000/svg" width="32" height="32" fill="none"><path fill="#321B41" d="M11 25.5a4.5 4.5 0 1 1-9 0 4.5 4.5 0 0 1 9 0Zm19 0a4.5 4.5 0 1 1-9 0 4.5 4.5 0 0 1 9 0Z"/><path fill="#636363" d="m6.99 26.254-1.076-1.621 4.07-3.988 1.516 1.357-4.51 4.252Zm18.51-1.106.501-.648-3.756-3.673L21 22.5l2.723 2.53H19.02V27H25.5v-1.852Z"/><path fill="#FF822D" d="M11.23 23c.465.922.77 1.89.77 3 0 1.04.917 2 2 2h4c1.083 0 2-.85 2-1.89V26c0-1.09.266-2.12.797-3l-4.783-1-4.784 1Z"/><path fill="#F92F60" d="M7.5 15 6 17c.5.5.717 1.015 1 1.5.311.533.5.5.79 1.39l.54.27c1.26.63 2.25 1.64 2.89 2.84h9.6a6.027 6.027 0 0 1 3.09-2.62c1.65-.62 3.2-1.48 4.45-2.73.42-.42.65-.98.65-1.57v-.11a.995.995 0 0 0-.99-.97h-4.05a.97.97 0 0 0-.97.97v1.13h-7c0-1.1-.9-2.1-2-2.1H7.5Z"/><path fill="#CA0B4A" d="M27 17.01c-.55 0-1 .45-1 1 0 .46.31.82.73.94.58-.38 1.13-.8 1.62-1.3.19-.19.33-.41.44-.65H27v.01Z"/><path fill="#533566" d="M22.03 19h-5.06a.97.97 0 0 1-.97-.97V17h7v1.03c0 .54-.44.97-.97.97Z"/><path fill="#FCD53F" d="M8 19c0 .32-.09.62-.22.89A3.219 3.219 0 0 1 6 17c1.1 0 2 .9 2 2Zm2.01 0h1v-2h-1c-.55 0-1 .45-1 1s.45 1 1 1Z"/><path fill="#F4F4F4" d="M8 25.5a1.5 1.5 0 1 1-3 0 1.5 1.5 0 0 1 3 0Zm19 0a1.5 1.5 0 1 1-3 0 1.5 1.5 0 0 1 3 0Z"/><path fill="#26C9FC" d="M5.999 17c.63 0 1.23-.28 1.64-.77l3.2-3.83c.44-.53-.09-1.31-.74-1.09-2.39.8-4.1 3.05-4.1 5.69Z"/><path fill="#321B41" d="M10.51 15h-2c-.28 0-.5-.22-.5-.5s.22-.5.5-.5h2c.28 0 .5.22.5.5s-.23.5-.5.5Z"/></svg>
